public/icons/ri_behance-fill.svg

<svg width="46" height="46" viewBox="0 0 46 46" fill="none" xmlns="http://www.w3.org/2000/svg">
<path d="M14.2661 10.2542C15.4908 10.2542 16.6236 10.35 17.6586 10.6337C18.6955 10.8234 19.5446 11.2029 20.2978 11.6763C21.053 12.1504 21.6184 12.8142 21.9941 13.6677C22.3717 14.5207 22.5614 15.5652 22.5614 16.7018C22.5614 18.0301 22.2777 19.1666 21.6184 20.0196C21.053 20.8744 20.11 21.6315 18.9792 22.2007C20.5815 22.6761 21.8062 23.529 22.5614 24.6656C23.3166 25.8022 23.7862 27.2262 23.7862 28.8381C23.7862 30.1664 23.5025 31.303 23.031 32.2517C22.5614 33.2005 21.8062 34.0534 20.9572 34.6226C20.0344 35.2321 19.015 35.6806 17.9422 35.949C16.8114 36.2346 15.6806 36.4243 14.5497 36.4243H1.91699V10.2542H14.2661ZM13.5109 20.8725C14.5478 20.8725 15.3969 20.5888 16.0562 20.1154C16.7156 19.642 16.9992 18.7872 16.9992 17.7445C16.9992 17.1752 16.9034 16.606 16.7156 16.2284C16.5277 15.8508 16.2441 15.5633 15.8684 15.2797C15.4843 15.0639 15.0712 14.9045 14.6417 14.8062C14.1702 14.7104 13.7007 14.7104 13.1333 14.7104H7.66699V20.8744L13.5109 20.8725ZM13.7946 32.062C14.36 32.062 14.9254 31.9661 15.3969 31.8722C15.8684 31.7764 16.3399 31.5886 16.7156 31.303C17.0981 31.0238 17.4191 30.6689 17.6586 30.2603C17.8464 29.7869 18.0362 29.2177 18.0362 28.5545C18.0362 27.2262 17.6586 26.2775 16.9053 25.6143C16.1502 25.0451 15.1132 24.7614 13.8885 24.7614H7.66699V32.0639L13.7946 32.062ZM31.9876 31.9661C32.7415 32.7251 33.8723 33.1046 35.3801 33.1046C36.417 33.1046 37.36 32.821 38.1132 32.3476C38.8684 31.7777 39.3399 31.2084 39.5277 30.6398H44.1469C43.3917 32.9149 42.2609 34.5268 40.7544 35.5695C39.2441 36.5182 37.4539 37.0875 35.2862 37.0875C33.8994 37.0895 32.5245 36.8321 31.2324 36.3285C30.0692 35.8947 29.0324 35.178 28.2156 34.2431C27.3383 33.3717 26.691 32.2963 26.3315 31.1132C25.86 29.8808 25.6702 28.5545 25.6702 27.0365C25.6702 25.6143 25.86 24.288 26.3315 23.0537C26.7838 21.8645 27.4554 20.771 28.3114 19.8298C29.1586 18.9769 30.1955 18.2198 31.3263 17.7445C32.5851 17.2391 33.9297 16.9814 35.2862 16.9855C36.8885 16.9855 38.303 17.2711 39.5277 17.9342C40.7544 18.5974 41.6955 19.3564 42.4487 20.4949C43.2039 21.5376 43.7712 22.77 44.1469 24.0982C44.3347 25.4246 44.4287 26.7528 44.3347 28.2689H30.667C30.667 29.7869 31.2324 31.2091 31.9876 31.9681M37.9254 22.0129C37.2661 21.3497 36.2292 20.9702 35.0025 20.9702C34.2833 20.9595 33.572 21.1218 32.9287 21.4436C32.3632 21.7292 31.9876 22.1087 31.61 22.4882C31.2609 22.8533 31.0309 23.3158 30.9507 23.8146C30.8548 24.2899 30.7609 24.6675 30.7609 25.047H39.2441C39.0562 23.6248 38.5847 22.678 37.9254 22.0129ZM29.6301 12.0558H40.1871V14.6165H29.632L29.6301 12.0558Z" fill="white"/>
</svg>

<svg width="46" height="46" fill="none" xmlns="http://www.w3.org/2000/svg"><path d="M14.266 10.254c1.225 0 2.358.096 3.393.38 1.037.19 1.886.569 2.639 1.042.755.474 1.32 1.138 1.696 1.992.378.853.567 1.897.567 3.034 0 1.328-.283 2.465-.943 3.318-.565.854-1.508 1.611-2.639 2.18 1.602.476 2.827 1.329 3.582 2.466.756 1.136 1.225 2.56 1.225 4.172 0 1.328-.284 2.465-.755 3.414a6.276 6.276 0 0 1-2.074 2.37 9.775 9.775 0 0 1-3.015 1.327c-1.13.286-2.261.475-3.392.475H1.917v-26.17h12.35Zm-.755 10.618c1.037 0 1.886-.283 2.545-.757.66-.473.943-1.328.943-2.37 0-.57-.096-1.139-.283-1.517-.188-.377-.472-.665-.848-.948a4.599 4.599 0 0 0-1.226-.474c-.472-.096-.941-.096-1.509-.096H7.667v6.164l5.844-.002Zm.284 11.19c.565 0 1.13-.096 1.602-.19.471-.096.943-.283 1.319-.569.382-.28.703-.634.943-1.043.187-.473.377-1.042.377-1.706 0-1.328-.377-2.276-1.13-2.94-.756-.569-1.793-.853-3.017-.853H7.667v7.303l6.128-.002Zm18.193-.096c.754.76 1.884 1.139 3.392 1.139 1.037 0 1.98-.284 2.733-.757.755-.57 1.227-1.14 1.415-1.708h4.619c-.755 2.275-1.886 3.887-3.393 4.93-1.51.948-3.3 1.517-5.468 1.517a11.119 11.119 0 0 1-4.054-.759 7.474 7.474 0 0 1-3.016-2.085 7.474 7.474 0 0 1-1.885-3.13c-.471-1.232-.66-2.558-.66-4.076 0-1.423.189-2.749.66-3.983a10.16 10.16 0 0 1 1.98-3.224c.848-.853 1.884-1.61 3.015-2.085a10.543 10.543 0 0 1 3.96-.76c1.602 0 3.017.286 4.242.95 1.226.662 2.168 1.421 2.92 2.56.756 1.043 1.323 2.275 1.699 3.603.188 1.327.282 2.655.188 4.17H30.667c0 1.519.565 2.941 1.32 3.7m5.938-9.955c-.659-.663-1.696-1.043-2.922-1.043-.72-.01-1.431.152-2.074.474-.566.285-.941.665-1.319 1.044-.35.365-.58.828-.66 1.327-.095.475-.19.852-.19 1.232h8.484c-.188-1.422-.66-2.369-1.319-3.034Zm-8.295-9.957h10.557v2.56H29.632l-.002-2.56Z" fill="#fff"/></svg>
